X:1
T:Wanderlied
T:Wanderlied
T:Karl maria von Weber
C:Karl maria von Weber
%%score [ 1 2 3 4 ]
L:1/8
Q:1/4=45
M:3/4
K:F
V:1 treble-8 nm="Tenor I"
V:2 treble-8 nm="Tenor II"
V:3 bass nm="Bass I"
V:4 bass nm="Bass II"
V:1
!mf!"^Halbchor" c>!<(!c dc!<)! fe |!>(! (e2!>)! d2)"^'"!<(! ^cc | d>!<)!e gf e!>(!d | %3
w: Der du von der Him- mel|bist, * al- les|Leid und Schmer- * zen *|
w: |||
w: |||
 d2!>)! c2"^'"!p! c>c |!<(! c3!<)! c!>(! d!>)!c | c2!mf!"^'" f3 e | d>e g2 =B2 | %7
w: stil- lest, den, der|dop- pelt e- lend|ist, dop- pelt|mit Er- qui- ckung|
w: ||||
w: ||||
!>(! d2 c2!>)!"^'"!pp! B!>)!!>(!A | G3 B!<(! dc!<)! |!>(! e2!>)! f2!p!"^'" ed | %10
w: fül- lest, ach, ich|bin der Trei- bens|mü- de, was soll|
w: |||
w: |||
!<(! d^c!<)! d3"^'"!f! d | f4!>(! f2!>)! | !fermata!e2 !fermata!z2 |: %13
w: all der Schmerz und|all die||
w: |||
w: ||Lust?|
!p!"^Soli, Wiederholung Chor." c>c!p! |!>(! c2!>)! A2!mf!"^'" f>f | %15
w: Süs- ser|Frie- de, süs- ser|
w: ||
w: ||
!>(! f2!>)! c2!mf!"^'"!>(! c>!>)!c |!<(! (d3 f)"^'" e!<)!d |!f! (c3 a)"^'" gf | %18
w: Frie- de, komm', ach|komm', * ach *|komm' * in *|
w: |||
w: |||
 (f2 e)!>(!d e2!>)! | !fermata!f4 :|!mf!"^Tutti" d>d |!>(! d6!>)! | B4"^'"!f! f>f |!>(! f6!>)! | %24
w: mei- * * ne|Brust!||Frie-|de, süs- ser|Frie-|
w: ||Süs- ser||||
w: ||||||
 d4 z2 |!mf!!<(! (c3 f)"^'" e!<)!d |!f! (c3 a)"^'" gf | (f2 e)d e2 |!>(! (f6!>)! | f4)!p!"^'" c2 | %30
w: de,|komm', * ach *|komm' * in *|mei- * * ne|Brust,|* in|
w: ||||||
w: ||||||
"^dim." c4!pp!!<(! c2!<)! |!>(! !fermata!c6!>)! |] %32
w: mei- ne|Brust!|
w: ||
w: ||
V:2
!mf!"^Halbchor" A>!<(!A BA!<)! cc |!>(! (c2!>)! B2)"^'"!<(! BB | B>!<)!B B2!>(! B2 | %3
w: Der du von der Him- mel|bist, * al- les|Leid und Schmer- zen|
w: |||
w: |||
 B2!>)! A2"^'"!p! A>A |!<(! (G2 B)!<)!A!>(! G!>)!B | A2!mf!"^'" d3 ^c | d>^c d2 G2 | %7
w: stil- lest, den, der|dop- * pelt e- lend|ist, dop- pelt|mit Er- qui- ckung|
w: ||||
w: ||||
!>(! G2 G2!>)!"^'"!pp!!>(! G!>)!F | E3 G!<(! BB!<)! |!>(! B2!>)! A2!p!"^'" AA | %10
w: fül- lest, ach, ich|bin der Trei- bens|mü- de, was soll|
w: |||
w: |||
!<(! BB!<)! B3"^'"!f! B | =B4!>(! B2!>)! | !fermata!c2 !fermata!z2 |: %13
w: all der Schmerz und|all die||
w: |||
w: ||Lust?|
!p!"^Soli, Wiederholung Chor." A>A!p! |!>(! A2!>)! F2!mf!"^'" c>c | %15
w: Süs- ser|Frie- de, süs- ser|
w: ||
w: ||
!>(! c2!>)! A2!mf!"^'"!>(! A>!>)!A |!<(! (B3 d)"^'" c!<)!B |!f! A4"^'" c2 | c4!>(! c2!>)! | %19
w: Frie- de, komm', ach|komm', * ach *|komm' in|mei- ne|
w: ||||
w: ||||
 !fermata!c4 :|!mf!"^Tutti" B>B |!>(! B6!>)! | F4"^'"!f! d>d |!>(! d6!>)! | B4 z2 | %25
w: Brust!||Frie-|de, süs- ser|Frie-|de,|
w: |Süs- ser|||||
w: ||||||
!mf!!<(! A4"^'" B2!<)! |!f! A4"^'" c2 | c4 c2 |!>(! (c6!>)! | c4)!p!"^'" A2 | %30
w: komm', ach|komm' in|mei- ne|Brust,|* in|
w: |||||
w: |||||
"^dim." A4!pp!!<(! A2!<)! |!>(! !fermata!A6!>)! |] %32
w: mei- ne|Brust!|
w: ||
w: ||
V:3
!mf!"^Halbchor" F,>!<(!F, F,F,!<)! F,F, |!>(! F,4!>)!"^'"!<(! E,E, | F,>!<)!F, F,2!>(! F,2 | %3
w: Der du von der Him- mel|bist, al- les|Leid und Schmer- zen|
w: |||
w: |||
 F,2!>)! F,2"^'"!p! F,>F, |!<(! (E,2 G,)!<)!F,!>(! E,!>)!E, | F,2!mf!"^'" A,3 A, | A,>A, A,2 F,2 | %7
w: stil- lest, den, der|dop- * pelt e- lend|ist, dop- pelt|mit Er- qui- ckung|
w: ||||
w: ||||
!>(! F,2 E,2!>)!"^'"!pp! C,!>)!!>(!C, | C,3 E,!<(! E,E,!<)! |!>(! G,2!>)! F,2!p!"^'" F,F, | %10
w: fül- lest, ach, ich|bin der Trei- bens|mü- de, was soll|
w: |||
w: |||
!<(! F,E,!<)! F,3"^'"!f! F, | (F,2 ^G,2)!>(! =G,2!>)! | !fermata!G,2 !fermata!z2 |: %13
w: all der Schmerz und|all * die||
w: |||
w: ||Lust?|
!p!"^Soli, Wiederholung Chor." F,>F,!p! |!>(! F,2!>)! C,2!mf!"^'" A,>A, | %15
w: Süs- ser|Frie- de, süs- ser|
w: ||
w: ||
!>(! A,2!>)! F,2!mf!"^'"!>(! F,>!>)!F, |!<(! F,4"^'" F,2!<)! |!f! (F,3 C)"^'" B,A, | %18
w: Frie- de, komm', ach|komm', ach|komm' * in *|
w: |||
w: |||
 (A,2 G,)!>(!F, G,2!>)! | !fermata!A,4 :|!mf!"^Tutti" F,>F, |!>(! F,6!>)! | D,4"^'"!f! B,>B, | %23
w: mei- * * ne|Brust!||Frie-|de, süs- ser|
w: ||Süs- ser|||
w: |||||
!>(! B,6!>)! | F,4 z2 |!mf!!<(! F,4"^'" F,2!<)! |!f! (F,3 C)"^'" B,A, | (A,2 G,)F, G,2 | %28
w: Frie-|de,|komm', ach|komm' * in *|mei- * * ne|
w: |||||
w: |||||
!>(! (A,6!>)! | A,4)!p!"^'" F,2 |"^dim." F,4!pp!!<(! F,2!<)! |!>(! !fermata!F,6!>)! |] %32
w: Brust,|* in|mei- ne|Brust!|
w: ||||
w: ||||
V:4
!mf!"^Halbchor" F,>!<(!F, F,F,!<)! A,,A,, |!>(! B,,4!>)!"^'"!<(! B,,B,, | %2
w: Der du von der Him- mel|bist, al- les|
w: ||
w: ||
 B,,>!<)!C, D,2 C,!>(!B,, | F,2!>)! F,,2"^'"!p! F,>F, |!<(! C,3!<)! C,!>(! C,!>)!C, | %5
w: Leid und Schmer- zen *|stil- lest, den, der|dop- pelt e- lend|
w: |||
w: |||
 F,2!mf!"^'" D,3 E, | F,>E, D,2 D,2 |!>(! =B,,2!>)! C,2"^'"!pp!!>(! C,!>)!C, | %8
w: ist, dop- pelt|mit Er- qui- ckung|fül- lest, ach, ich|
w: |||
w: |||
 C,3 C,!<(! C,C,!<)! |!>(! ^C,2!>)! D,2!p!"^'" D,=C, |!<(! B,,B,,!<)! B,,3"^'"!f! B,, | %11
w: bin der Trei- bens|mü- de, was soll|all der Schmerz und|
w: |||
w: |||
 ^C,4!>(! C,2!>)! | !fermata!C,2 !fermata!z2 |:!p!"^Soli, Wiederholung Chor." F,>F,!p! | %14
w: all die||Süs- ser|
w: |||
w: |Lust?||
!>(! F,2!>)! F,,2!mf!"^'" F,>F, |!>(! F,2!>)! F,,2!mf!"^'"!>(! F,>!>)!F, |!<(! B,,4"^'" B,,2!<)! | %17
w: Frie- de, süs- ser|Frie- de, komm', ach|komm', ach|
w: |||
w: |||
!f! C,4"^'" C,2 | C,4!>(! C,2!>)! | !fermata!F,,4 :|!mf!"^Tutti" B,,>B,, |!>(! B,,6!>)! | %22
w: komm' in|mei- ne|Brust!||Frie-|
w: |||Süs- ser||
w: |||||
 B,,4"^'"!f! B,,>B,, |!>(! B,,6!>)! | B,,4 z2 |!mf!!<(! F,4"^'" B,,2!<)! |!f! C,4"^'" C,2 | %27
w: de, süs- ser|Frie-|de,|komm', ach|komm' in|
w: |||||
w: |||||
 C,4 C,2 |!>(! (F,6!>)! | F,4)!p!"^'" F,2 |"^dim." A,,4!pp!!<(! C,2!<)! | %31
w: mei- ne|Brust,|* in|mei- ne|
w: ||||
w: ||||
!>(! !fermata![F,,C,]6!>)! |] %32
w: Brust!|
w: |
w: |

